X:1
T:Title
L:1/8
Q:1/4=120
M:2/4
K:Ab
V:1 treble nm="Church Organ, Staff"
V:1
 A2 GA | B2 A2 | F2 A2 | d4 | d2 cd | e2 d2 | c2 B2 | E3 F | _G2 G2 | c2 B2 | A4 | _G2 F2 | E2 d2 | %13
w: By~Mrs.~J.~H.~Barbour * *|||||||||||||
 c2 B2 | B4 | A2 z A | G2 A2 | B2 A2 | F2 A2 | d2 d2 | c2 d2 | e2 d2 | c2 B2 | E3 F | _G2 G2 | %25
w: ||||||||||||
 c2 B2 | A4 | _G2 F2 | E2 d2 | c2 B2 | B4 |[M:6/8] A2 A- A/ z/ e2- | e2 =d- d/ z/ e2- | %33
w: ||||||||
 e2 c- c/ z/ d2- | d2 B- B/ z/ A2- | A2 A- A/ z/ B2 | B2 c- c/ z/ d2- | d2 B- B/ z/ A2 | %38
w: |||||
 F2 A- A2- A/ z/ | A2 B- B2- B/ z/ | c2 d- d2- d/ z/ | A2 f- f3- | f2 e- e3- | e2 d- d3- | %44
w: ||||||
 d2 d- d3- | d3 z3 |] %46
w: ||

